svgs/regular/dice-d10.svg

<svg xmlns="http://www.w3.org/2000/svg" viewBox="0 0 512 512"><!-- Font Awesome Pro 6.0.0-alpha2 by @fontawesome - https://fontawesome.com License - https://fontawesome.com/license (Commercial License) --><path d="M512 282.595C512 275.005 509.32 267.379 503.885 261.25L279.774 10.625C273.524 3.5 264.775 0 256.025 0S238.526 3.5 232.276 10.625L8.165 261.25C2.685 267.365 0 274.971 0 282.544C0 291.381 3.655 300.173 10.79 306.5L234.901 504C240.901 509.375 248.526 512 256.025 512C263.525 512 271.149 509.375 277.149 504L501.26 306.5C508.381 300.185 512 291.414 512 282.595ZM256.025 287.875L189.904 243.75L256.025 89.625L322.146 243.75L256.025 287.875ZM142.657 232.25L85.785 246.5L183.279 137.375L142.657 232.25ZM155.531 278.5L232.027 329.5V437.5L74.661 298.75L155.531 278.5ZM280.024 329.5L356.519 278.5L437.389 298.75L280.024 437.5V329.5ZM369.393 232.25L328.771 137.375L426.265 246.5L369.393 232.25Z "></path></svg>

<svg xmlns="http://www.w3.org/2000/svg" viewBox="0 0 512 512"><!--! Font Awesome Pro 6.3.0 by @fontawesome - https://fontawesome.com License - https://fontawesome.com/license (Commercial License) Copyright 2023 Fonticons, Inc. --><path d="M512 282.6c0-7.59-2.683-15.19-8.118-21.32l-224.1-250.6C273.5 3.5 264.8 0 256 0S238.5 3.5 232.2 10.62L8.151 261.3C2.671 267.4 0 274.1 0 282.5C0 291.4 3.662 300.2 10.8 306.5l224.1 197.5C240.9 509.4 248.5 512 256 512c7.5 0 15.12-2.615 21.12-7.99l224.1-197.5C508.4 300.2 512 291.4 512 282.6zM256 287.9L189.9 243.8l66.12-154.1l66.12 154.1L256 287.9zM142.7 232.2L85.79 246.5l97.49-109.1L142.7 232.2zM155.5 278.5l76.5 51v108l-157.4-138.7L155.5 278.5zM280 329.5l76.5-51l80.87 20.25l-157.4 138.7V329.5zM369.4 232.2l-40.62-94.87l97.49 109.1L369.4 232.2z"/></svg>
